X: 558
T: Xiang qinggei
L: 1/16
M: 2/4
K: F
F2 G A F2 E D [I:setbarnb 1]| 
c2 d fc4 | 
c2 d2 f2 c A | 
c2 G AG4 | 
c2 G A c E3 | 
D F G AF4 | 
F2 G A A2 F D | 
C2 D FC4 |]

@@@ Tune index: 9432
